X:1
T:Title
%%score { ( 1 4 ) | ( 2 3 ) }
L:1/8
Q:1/4=100
M:4/4
K:F
V:1 treble nm="Grand Piano"
V:4 treble 
V:2 bass 
V:3 bass 
V:1
 A4 B2 A2 | G3 D D2 D2 | E3 F/E/ D2 C2 | A6 z2 | A4 B2 A2 | [DG]3 D D2 D2 | E3 F/E/ D2 E2 | F6 z2 | %8
w: D.~B.~Towner * *||||||||
 [EG]4 [Ec]2 [EG]2 | [FA]3 [GB] [Ac]4 | [Fd]4 [Fd]2 [FA]2 | [Ec]3 [EB] [EB]4 | e4 z4 | %13
w: |||||
[M:9/8] f3 F F2 G3 |[M:4/4] [FA]4 [EB]2 E2 | F6 z2 |] %16
w: |||
V:2
 [F,C]4 [F,D]2 [F,C]2 | z4 B,2 z2 | [C,B,C]4 [C,B,C]2 [E,G,]2 | [F,C]6 z2 | %4
 [F,CF]4 [F,DF]2 [F,CF]2 | z4 B,2 z2 | [C,B,C]4 [C,B,C]2 [C,B,C]2 | [F,A,C]6 z2 | %8
 [C,C]4 [C,G,]2 [C,C]2 | [F,C]3 [F,C] [F,F]4 | [D,A,]4 [D,A,]2 [D,D]2 | [C,G,]3 [C,C] [C,C]4 | %12
 [C,B,]4 [C,B,]2 [E,B,]2 |[M:9/8] z3 z [A,D]2 z3 |[M:4/4] [C,C]4 [C,C]2 [C,B,C]2 | [F,A,C]6 z2 |] %16
V:3
 x8 | [B,,F,B,]3 [B,,F,B,] [B,,F,]4 | x8 | x8 | x8 | [B,,B,]3 [B,,F,B,] [B,,F,]4 | x8 | x8 | x8 | %9
 x8 | x8 | x8 | x8 |[M:9/8] [F,A,F]3 [F,A,C] D,2- [D,=B,F]3 |[M:4/4] x8 | x8 |] %16
V:4
 x8 | x8 | x8 | x8 | x8 | x8 | x8 | x8 | x8 | x8 | x8 | x8 | G3- [G-f]/[Ge]/ [Gd]2 [Gc]2 | %13
[M:9/8] x9 |[M:4/4] x8 | x8 |] %16

